X:865
T:Reel 865
M:4/4
K:Gmaj
L:1/8
BA|GFGA BcBA|G2Bc B2d2|GFGA BABc|d2ef gfed|GABc BcBd|dBGA BcdB| (3cBA BG AGFA|BGEF G2|Bc|d2ge fedB|g2ge dBGB|c2ec BcdB|AGAB A2dc|d2gf g2fd|dgfg efdB|c2ec B2dB|ABAB A2|
